svg/invoice_import_outline.svg

<svg xmlns="http://www.w3.org/2000/svg" viewBox="0 0 24 24"><path d="m18 20 3 2V3H3v6h2V5h14v13.26l-1-.66-3 2-3-2-3 2-3-2-1 .66V15H3v7l3-2 3 2 3-2 3 2zm-6.5-3-1.42-1.42L12.67 13H3v-2h9.67l-2.59-2.59L11.5 7l5 5z"/></svg>

<svg xmlns="http://www.w3.org/2000/svg" id="mdi-invoice-import-outline" viewBox="0 0 24 24"><path d="M18 20L21 22V3H3V9H5V5H19V18.26L18 17.6L15 19.6L12 17.6L9 19.6L6 17.6L5 18.26V15H3V22L6 20L9 22L12 20L15 22L18 20M11.5 17L10.08 15.58L12.67 13H3V11H12.67L10.08 8.41L11.5 7L16.5 12L11.5 17Z" /></svg>
